X:1001
T:Aiken Drum
T:Willie Wood
T:There's a Man Came to our Town
R:Reel
C:Trad. Before 1820
O:Scotland
Z:Paul Hardy's Session Tunebook 2015 (see www.paulhardy.net). Creative Commons cc by-nc-sa licenced.
M:4/4
L:1/8
Q:1/4=140
K:D
de|"D"f2 f2 gfed|"G"B4 d3 B|"D"A3 B d2 A2|"E7"f2 e2 "A7"e2 de|"D"f2 f2 gfed|"G"B4 d3 B|"A7"A2 A2 B2 c2|"D"d6:|
